X: 50
T: 46. QUADRILLE
B: Sam Bayard, "Hill Country Tunes" 1944 #46
S: Played by John Kubina, (near) Davistown, Greene County, PA, Sept 3, 1943.
S: Learned from Ann Peterson, fiddler, in East Pittsburgh.
Z: 2010 John Chambers <jc:trillian.mit.edu>
R: jig
M: 6/8
L: 1/8
%%slurgraces
K: Ador
{d}eAA eAA | BAG Bcd | eAA eAA | BAA g2f |
eAA eAA | BAG Bcd | efg fed | eAA A2z |
eaa a^ga | bag fed | eaa a^ga "a."baf g2z |
eaa a^ga | bag fed | efg fed | eAA A2z |]
P: Var:
"a"bbf |]

%%sep 2 1 500
%%sep 1 1 500

